!! 00000] TT[WS
!!!OTL: Wugeng li
!!!ARE: Asia, China, Shanxi Xiaoyi
!! Ethnic Group: Han
!! WII, 68 (2)
!!!SCT: J0498
!!!YEM: Copyright 1995, estate of Helmut Schaffrath.
**kern
*ICvox
*Ivox
*M2/4
*k[f#]
*G:
{8d
8g
8g
8e
=1
16dd
8ee
16dd
4dd
=2
8dd
8ee
16ee
16dd
8b
=3
8b
8g
4a}
=4
{8dd
16a
16b
8dd
8dd
=5
8a
8dd
16a
16b
16a
16g
=6
8e
16d
16e
8a
16b
16e
=7
2d}
=8
{8g
16e
16d
4g
=9
8b
16g
16a
4b
=10
8dd
16b
16a
8g
8e
=11
8b
4.e}
=12
{8ee
8gg
8ee
8dd
=13
8b
16ee
16gg
8ee
8dd
=14
8b
16b
16a
8g
8dd
=15
4b
16a
16g
16f#
16e
=16
2d}
==
!!!AGN: Xiaodiao. Qingge, Sichun
!!!ONB: ESAC (Essen Associative Code) Database: CHINA
!!!AMT: simple duple
!!!AIN: vox
!!!EED: Helmut Schaffrath
!!!EEV: 1.0
*-
